static/img/kroki/6420223b4384dc6dab33c5db8cc28ec9.svg

<?xml version="1.0" encoding="us-ascii" standalone="no"?><svg xmlns="http://www.w3.org/2000/svg" xmlns:xlink="http://www.w3.org/1999/xlink" contentStyleType="text/css" height="1138px" preserveAspectRatio="none" style="width:291px;height:1138px;" version="1.1" viewBox="0 0 291 1138" width="291px" zoomAndPan="magnify"><defs/><g><!--class azure_mysql_server_log_file--><g id="elem_azure_mysql_server_log_file"><rect codeLine="23" fill="#3D176E" height="205.5703" id="azure_mysql_server_log_file" rx="2.5" ry="2.5" style="stroke:#000D19;stroke-width:0.5;" width="277" x="7" y="660.14"/><ellipse cx="22" cy="680.0345" fill="#ADD1B2" rx="11" ry="11" style="stroke:#181818;stroke-width:1.0;"/><path d="M24.9688,685.6752 Q24.3906,685.972 23.75,686.1127 Q23.1094,686.2689 22.4063,686.2689 Q19.9063,686.2689 18.5781,684.6283 Q17.2656,682.972 17.2656,679.847 Q17.2656,676.722 18.5781,675.0658 Q19.9063,673.4095 22.4063,673.4095 Q23.1094,673.4095 23.75,673.5658 Q24.4063,673.722 24.9688,674.0189 L24.9688,676.7377 Q24.3438,676.1595 23.75,675.8939 Q23.1563,675.6127 22.5313,675.6127 Q21.1875,675.6127 20.5,676.6908 Q19.8125,677.7533 19.8125,679.847 Q19.8125,681.9408 20.5,683.0189 Q21.1875,684.0814 22.5313,684.0814 Q23.1563,684.0814 23.75,683.8158 Q24.3438,683.5345 24.9688,682.9564 L24.9688,685.6752 Z " fill="#000000"/><text fill="#D9B8FF" font-family="Helvetica" font-size="17" lengthAdjust="spacing" textLength="235" x="41" y="685.9198">azure_mysql_server_log_file</text><line style="stroke:#000D19;stroke-width:0.5;" x1="8" x2="283" y1="699.9291" y2="699.9291"/><text fill="#D9B8FF" font-family="sans-serif" font-size="14" font-weight="bold" lengthAdjust="spacing" textLength="102" x="18" y="721.9242">created_time</text><text fill="#D9B8FF" font-family="sans-serif" font-size="14" lengthAdjust="spacing" textLength="70" x="120" y="721.9242">: datetime</text><text fill="#D9B8FF" font-family="sans-serif" font-size="14" font-weight="bold" lengthAdjust="spacing" textLength="144" x="18" y="748.2211">last_modified_time</text><text fill="#D9B8FF" font-family="sans-serif" font-size="14" lengthAdjust="spacing" textLength="70" x="162" y="748.2211">: datetime</text><text fill="#D9B8FF" font-family="sans-serif" font-size="14" font-weight="bold" lengthAdjust="spacing" textLength="79" x="18" y="774.5179">size_in_kb</text><text fill="#D9B8FF" font-family="sans-serif" font-size="14" lengthAdjust="spacing" textLength="44" x="97" y="774.5179">: int64</text><text fill="#D9B8FF" font-family="sans-serif" font-size="14" font-weight="bold" lengthAdjust="spacing" textLength="98" x="18" y="800.8148">system_data</text><text fill="#D9B8FF" font-family="sans-serif" font-size="14" lengthAdjust="spacing" textLength="142" x="116" y="800.8148">: azure_system_data</text><text fill="#D9B8FF" font-family="sans-serif" font-size="14" font-weight="bold" lengthAdjust="spacing" textLength="35" x="18" y="827.1117">type</text><text fill="#D9B8FF" font-family="sans-serif" font-size="14" lengthAdjust="spacing" textLength="48" x="53" y="827.1117">: string</text><text fill="#D9B8FF" font-family="sans-serif" font-size="14" font-weight="bold" lengthAdjust="spacing" textLength="21" x="18" y="853.4086">url</text><text fill="#D9B8FF" font-family="sans-serif" font-size="14" lengthAdjust="spacing" textLength="48" x="39" y="853.4086">: string</text></g><!--class azure_system_data--><g id="elem_azure_system_data"><rect codeLine="31" fill="#3D176E" height="205.5703" id="azure_system_data" rx="2.5" ry="2.5" style="stroke:#000D19;stroke-width:0.5;" width="241" x="25" y="925.71"/><ellipse cx="57.1" cy="945.6045" fill="#ADD1B2" rx="11" ry="11" style="stroke:#181818;stroke-width:1.0;"/><path d="M60.0688,951.2452 Q59.4906,951.542 58.85,951.6827 Q58.2094,951.8389 57.5063,951.8389 Q55.0063,951.8389 53.6781,950.1983 Q52.3656,948.542 52.3656,945.417 Q52.3656,942.292 53.6781,940.6358 Q55.0063,938.9795 57.5063,938.9795 Q58.2094,938.9795 58.85,939.1358 Q59.5063,939.292 60.0688,939.5889 L60.0688,942.3077 Q59.4438,941.7295 58.85,941.4639 Q58.2563,941.1827 57.6313,941.1827 Q56.2875,941.1827 55.6,942.2608 Q54.9125,943.3233 54.9125,945.417 Q54.9125,947.5108 55.6,948.5889 Q56.2875,949.6514 57.6313,949.6514 Q58.2563,949.6514 58.85,949.3858 Q59.4438,949.1045 60.0688,948.5264 L60.0688,951.2452 Z " fill="#000000"/><text fill="#D9B8FF" font-family="Helvetica" font-size="17" lengthAdjust="spacing" textLength="161" x="79.9" y="951.4898">azure_system_data</text><line style="stroke:#000D19;stroke-width:0.5;" x1="26" x2="265" y1="965.4991" y2="965.4991"/><text fill="#D9B8FF" font-family="sans-serif" font-size="14" font-weight="bold" lengthAdjust="spacing" textLength="83" x="36" y="987.4942">created_at</text><text fill="#D9B8FF" font-family="sans-serif" font-size="14" lengthAdjust="spacing" textLength="70" x="119" y="987.4942">: datetime</text><text fill="#D9B8FF" font-family="sans-serif" font-size="14" font-weight="bold" lengthAdjust="spacing" textLength="87" x="36" y="1013.7911">created_by</text><text fill="#D9B8FF" font-family="sans-serif" font-size="14" lengthAdjust="spacing" textLength="48" x="123" y="1013.7911">: string</text><text fill="#D9B8FF" font-family="sans-serif" font-size="14" font-weight="bold" lengthAdjust="spacing" textLength="129" x="36" y="1040.0879">created_by_type</text><text fill="#D9B8FF" font-family="sans-serif" font-size="14" lengthAdjust="spacing" textLength="48" x="165" y="1040.0879">: string</text><text fill="#D9B8FF" font-family="sans-serif" font-size="14" font-weight="bold" lengthAdjust="spacing" textLength="125" x="36" y="1066.3848">last_modified_at</text><text fill="#D9B8FF" font-family="sans-serif" font-size="14" lengthAdjust="spacing" textLength="70" x="161" y="1066.3848">: datetime</text><text fill="#D9B8FF" font-family="sans-serif" font-size="14" font-weight="bold" lengthAdjust="spacing" textLength="129" x="36" y="1092.6817">last_modified_by</text><text fill="#D9B8FF" font-family="sans-serif" font-size="14" lengthAdjust="spacing" textLength="48" x="165" y="1092.6817">: string</text><text fill="#D9B8FF" font-family="sans-serif" font-size="14" font-weight="bold" lengthAdjust="spacing" textLength="171" x="36" y="1118.9786">last_modified_by_type</text><text fill="#D9B8FF" font-family="sans-serif" font-size="14" lengthAdjust="spacing" textLength="48" x="207" y="1118.9786">: string</text></g><!--class microsoft_resource--><g id="elem_microsoft_resource"><rect codeLine="39" fill="#3D176E" height="100.3828" id="microsoft_resource" rx="2.5" ry="2.5" style="stroke:#000D19;stroke-width:0.5;" width="214" x="38.5" y="438.76"/><ellipse cx="59.8" cy="458.6545" fill="#ADD1B2" rx="11" ry="11" style="stroke:#181818;stroke-width:1.0;"/><path d="M62.7688,464.2952 Q62.1906,464.592 61.55,464.7327 Q60.9094,464.8889 60.2063,464.8889 Q57.7063,464.8889 56.3781,463.2483 Q55.0656,461.592 55.0656,458.467 Q55.0656,455.342 56.3781,453.6858 Q57.7063,452.0295 60.2063,452.0295 Q60.9094,452.0295 61.55,452.1858 Q62.2063,452.342 62.7688,452.6389 L62.7688,455.3577 Q62.1438,454.7795 61.55,454.5139 Q60.9563,454.2327 60.3313,454.2327 Q58.9875,454.2327 58.3,455.3108 Q57.6125,456.3733 57.6125,458.467 Q57.6125,460.5608 58.3,461.6389 Q58.9875,462.7014 60.3313,462.7014 Q60.9563,462.7014 61.55,462.4358 Q62.1438,462.1545 62.7688,461.5764 L62.7688,464.2952 Z " fill="#000000"/><text fill="#D9B8FF" font-family="Helvetica" font-size="17" lengthAdjust="spacing" textLength="158" x="80.2" y="464.5398">microsoft_resource</text><line style="stroke:#000D19;stroke-width:0.5;" x1="39.5" x2="251.5" y1="478.5491" y2="478.5491"/><text fill="#D9B8FF" font-family="sans-serif" font-size="14" font-weight="bold" lengthAdjust="spacing" textLength="35" x="49.5" y="500.5442">etag</text><text fill="#D9B8FF" font-family="sans-serif" font-size="14" lengthAdjust="spacing" textLength="48" x="84.5" y="500.5442">: string</text><text fill="#D9B8FF" font-family="sans-serif" font-size="14" font-weight="bold" lengthAdjust="spacing" textLength="144" x="49.5" y="526.8411">provisioning_state</text><text fill="#D9B8FF" font-family="sans-serif" font-size="14" lengthAdjust="spacing" textLength="48" x="193.5" y="526.8411">: string</text></g><!--class resource--><g id="elem_resource"><rect codeLine="43" fill="#3D176E" height="310.7578" id="resource" rx="2.5" ry="2.5" style="stroke:#000D19;stroke-width:0.5;" width="227" x="32" y="7"/><ellipse cx="100.75" cy="26.8945" fill="#ADD1B2" rx="11" ry="11" style="stroke:#181818;stroke-width:1.0;"/><path d="M103.7188,32.5352 Q103.1406,32.832 102.5,32.9727 Q101.8594,33.1289 101.1563,33.1289 Q98.6563,33.1289 97.3281,31.4883 Q96.0156,29.832 96.0156,26.707 Q96.0156,23.582 97.3281,21.9258 Q98.6563,20.2695 101.1563,20.2695 Q101.8594,20.2695 102.5,20.4258 Q103.1563,20.582 103.7188,20.8789 L103.7188,23.5977 Q103.0938,23.0195 102.5,22.7539 Q101.9063,22.4727 101.2813,22.4727 Q99.9375,22.4727 99.25,23.5508 Q98.5625,24.6133 98.5625,26.707 Q98.5625,28.8008 99.25,29.8789 Q99.9375,30.9414 101.2813,30.9414 Q101.9063,30.9414 102.5,30.6758 Q103.0938,30.3945 103.7188,29.8164 L103.7188,32.5352 Z " fill="#000000"/><text fill="#D9B8FF" font-family="Helvetica" font-size="17" lengthAdjust="spacing" textLength="71" x="126.25" y="32.7798">resource</text><line style="stroke:#000D19;stroke-width:0.5;" x1="33" x2="258" y1="46.7891" y2="46.7891"/><text fill="#D9B8FF" font-family="sans-serif" font-size="14" font-weight="bold" lengthAdjust="spacing" textLength="29" x="43" y="68.7842">age</text><text fill="#D9B8FF" font-family="sans-serif" font-size="14" lengthAdjust="spacing" textLength="66" x="72" y="68.7842">: duration</text><text fill="#D9B8FF" font-family="sans-serif" font-size="14" font-weight="bold" lengthAdjust="spacing" textLength="43" x="43" y="95.0811">atime</text><text fill="#D9B8FF" font-family="sans-serif" font-size="14" lengthAdjust="spacing" textLength="70" x="86" y="95.0811">: datetime</text><text fill="#D9B8FF" font-family="sans-serif" font-size="14" font-weight="bold" lengthAdjust="spacing" textLength="43" x="43" y="121.3779">ctime</text><text fill="#D9B8FF" font-family="sans-serif" font-size="14" lengthAdjust="spacing" textLength="70" x="86" y="121.3779">: datetime</text><text fill="#D9B8FF" font-family="sans-serif" font-size="14" font-weight="bold" lengthAdjust="spacing" textLength="14" x="43" y="147.6748">id</text><text fill="#D9B8FF" font-family="sans-serif" font-size="14" lengthAdjust="spacing" textLength="48" x="57" y="147.6748">: string</text><text fill="#D9B8FF" font-family="sans-serif" font-size="14" font-weight="bold" lengthAdjust="spacing" textLength="33" x="43" y="173.9717">kind</text><text fill="#D9B8FF" font-family="sans-serif" font-size="14" lengthAdjust="spacing" textLength="48" x="76" y="173.9717">: string</text><text fill="#D9B8FF" font-family="sans-serif" font-size="14" font-weight="bold" lengthAdjust="spacing" textLength="90" x="43" y="200.2686">last_access</text><text fill="#D9B8FF" font-family="sans-serif" font-size="14" lengthAdjust="spacing" textLength="66" x="133" y="200.2686">: duration</text><text fill="#D9B8FF" font-family="sans-serif" font-size="14" font-weight="bold" lengthAdjust="spacing" textLength="90" x="43" y="226.5654">last_update</text><text fill="#D9B8FF" font-family="sans-serif" font-size="14" lengthAdjust="spacing" textLength="66" x="133" y="226.5654">: duration</text><text fill="#D9B8FF" font-family="sans-serif" font-size="14" font-weight="bold" lengthAdjust="spacing" textLength="48" x="43" y="252.8623">mtime</text><text fill="#D9B8FF" font-family="sans-serif" font-size="14" lengthAdjust="spacing" textLength="70" x="91" y="252.8623">: datetime</text><text fill="#D9B8FF" font-family="sans-serif" font-size="14" font-weight="bold" lengthAdjust="spacing" textLength="43" x="43" y="279.1592">name</text><text fill="#D9B8FF" font-family="sans-serif" font-size="14" lengthAdjust="spacing" textLength="48" x="86" y="279.1592">: string</text><text fill="#D9B8FF" font-family="sans-serif" font-size="14" font-weight="bold" lengthAdjust="spacing" textLength="34" x="43" y="305.4561">tags</text><text fill="#D9B8FF" font-family="sans-serif" font-size="14" lengthAdjust="spacing" textLength="171" x="77" y="305.4561">: dictionary[string, string]</text></g><!--link azure_mysql_server_log_file to azure_system_data--><g id="link_azure_mysql_server_log_file_azure_system_data"><path codeLine="55" d="M145.5,866.2 C145.5,885.6 145.5,899.88 145.5,919.27 " fill="none" id="azure_mysql_server_log_file-to-azure_system_data" style="stroke:#FFAF37;stroke-width:2.0;"/><polygon fill="#FFAF37" points="145.5,925.27,149.5,916.27,145.5,920.27,141.5,916.27,145.5,925.27" style="stroke:#FFAF37;stroke-width:2.0;"/></g><!--reverse link microsoft_resource to azure_mysql_server_log_file--><g id="link_microsoft_resource_azure_mysql_server_log_file"><path codeLine="56" d="M145.5,557.52 C145.5,591.07 145.5,618.61 145.5,659.75 " fill="none" id="microsoft_resource-backto-azure_mysql_server_log_file" style="stroke:#FFAF37;stroke-width:2.0;"/><polygon fill="none" points="145.5,539.52,139.5,557.52,151.5,557.52,145.5,539.52" style="stroke:#FFAF37;stroke-width:2.0;"/></g><!--reverse link resource to microsoft_resource--><g id="link_resource_microsoft_resource"><path codeLine="57" d="M145.5,336.06 C145.5,379.65 145.5,405.98 145.5,438.42 " fill="none" id="resource-backto-microsoft_resource" style="stroke:#FFAF37;stroke-width:2.0;"/><polygon fill="none" points="145.5,318.06,139.5,336.06,151.5,336.06,145.5,318.06" style="stroke:#FFAF37;stroke-width:2.0;"/></g><!--SRC=[XLJHRjCm57tFLrZQMqMbbi6w8eGqAY5ucH3Z3KtMhNsJMetjSErqoe1_nrvQS9oiUulFEJxttEkhx9H4Xhhn7TEejqYkS7jb6Y3Gx8R8FcniRObTb2MKbwkS_6IDVr5m2nhPPwmFw9M0NF5zfyJUe7FiTK9z1B6loBP6zlQUmBX0eV69QbE3SpVUazgs7fCmShszBijScPjUNChbwWf7CaiIwIXPB1PokSubBvOws_S_nPrwHBPCXtPhFOvYZaeygSwcZ8eavAZH4_zingyWfJ8LUvjWt_fCP906-DqEf7s8wX9gbvPn7WcjxnhSZBh2zRKiLvFYBy-92n57n-2n9UIwSpzhxf0EIBos5IzLZUnNCPi9Gl0ekLSQPxDtJ8PJ_0vKkE-vjbALQbhWmfjmPVX-6mbb_DMRY7OXdUP11n7k0oHWaCJWaNDX7KqLW9RgvFnda3svEaWCFejp8hRTmFi_p4TrXosE78TqvfkJkVkf2wq4MMTBpmcTRKdqWqSFrS2l8NjGJbaJZjpva6B2R601LVyYBO4Fzo8oyKfY0bDoK3hibHpt1aA4VqrMuObf6tcCbp1weeu1FHnuQBftL29U0-f-zDohe-O-j7fkP-Vp3nChDJ7Zzx_dy_cvzIyowTYZ-0i0]--></g></svg>

<svg xmlns="http://www.w3.org/2000/svg" width="291" height="1138" viewBox="0 0 291 1138"><rect width="277" height="205.57" x="7" y="660.14" fill="#3D176E" rx="2.5" ry="2.5" style="stroke:#000d19;stroke-width:.5"/><circle cx="22" cy="680.034" r="11" fill="#ADD1B2" style="stroke:#181818;stroke-width:1"/><path d="M24.969 685.675q-.578.297-1.219.438-.64.156-1.344.156-2.5 0-3.828-1.64-1.312-1.657-1.312-4.782t1.312-4.781q1.328-1.657 3.828-1.657.703 0 1.344.157.656.156 1.219.453v2.719q-.625-.579-1.219-.844-.594-.281-1.219-.281-1.343 0-2.031 1.078-.687 1.062-.687 3.156t.687 3.172q.688 1.062 2.031 1.062.625 0 1.219-.265.594-.282 1.219-.86z"/><text x="41" y="685.92" fill="#D9B8FF" font-family="Helvetica" font-size="17" textLength="235">azure_mysql_server_log_file</text><path d="M8 699.929h275" style="stroke:#000d19;stroke-width:.5"/><text x="18" y="721.924" fill="#D9B8FF" font-family="sans-serif" font-size="14" font-weight="bold" textLength="102">created_time</text><text x="120" y="721.924" fill="#D9B8FF" font-family="sans-serif" font-size="14" textLength="70">: datetime</text><text x="18" y="748.221" fill="#D9B8FF" font-family="sans-serif" font-size="14" font-weight="bold" textLength="144">last_modified_time</text><text x="162" y="748.221" fill="#D9B8FF" font-family="sans-serif" font-size="14" textLength="70">: datetime</text><text x="18" y="774.518" fill="#D9B8FF" font-family="sans-serif" font-size="14" font-weight="bold" textLength="79">size_in_kb</text><text x="97" y="774.518" fill="#D9B8FF" font-family="sans-serif" font-size="14" textLength="44">: int64</text><text x="18" y="800.815" fill="#D9B8FF" font-family="sans-serif" font-size="14" font-weight="bold" textLength="98">system_data</text><text x="116" y="800.815" fill="#D9B8FF" font-family="sans-serif" font-size="14" textLength="142">: azure_system_data</text><text x="18" y="827.112" fill="#D9B8FF" font-family="sans-serif" font-size="14" font-weight="bold" textLength="35">type</text><text x="53" y="827.112" fill="#D9B8FF" font-family="sans-serif" font-size="14" textLength="48">: string</text><text x="18" y="853.409" fill="#D9B8FF" font-family="sans-serif" font-size="14" font-weight="bold" textLength="21">url</text><text x="39" y="853.409" fill="#D9B8FF" font-family="sans-serif" font-size="14" textLength="48">: string</text><rect width="241" height="205.57" x="25" y="925.71" fill="#3D176E" rx="2.5" ry="2.5" style="stroke:#000d19;stroke-width:.5"/><circle cx="57.1" cy="945.605" r="11" fill="#ADD1B2" style="stroke:#181818;stroke-width:1"/><path d="M60.069 951.245q-.578.297-1.219.438-.64.156-1.344.156-2.5 0-3.828-1.64-1.312-1.657-1.312-4.782t1.312-4.781q1.328-1.656 3.828-1.656.703 0 1.344.156.656.156 1.219.453v2.719q-.625-.578-1.219-.844-.594-.281-1.219-.281-1.343 0-2.031 1.078-.687 1.062-.687 3.156t.687 3.172q.688 1.062 2.031 1.062.625 0 1.219-.265.594-.281 1.219-.86z"/><text x="79.9" y="951.49" fill="#D9B8FF" font-family="Helvetica" font-size="17" textLength="161">azure_system_data</text><path d="M26 965.499h239" style="stroke:#000d19;stroke-width:.5"/><text x="36" y="987.494" fill="#D9B8FF" font-family="sans-serif" font-size="14" font-weight="bold" textLength="83">created_at</text><text x="119" y="987.494" fill="#D9B8FF" font-family="sans-serif" font-size="14" textLength="70">: datetime</text><text x="36" y="1013.791" fill="#D9B8FF" font-family="sans-serif" font-size="14" font-weight="bold" textLength="87">created_by</text><text x="123" y="1013.791" fill="#D9B8FF" font-family="sans-serif" font-size="14" textLength="48">: string</text><text x="36" y="1040.088" fill="#D9B8FF" font-family="sans-serif" font-size="14" font-weight="bold" textLength="129">created_by_type</text><text x="165" y="1040.088" fill="#D9B8FF" font-family="sans-serif" font-size="14" textLength="48">: string</text><text x="36" y="1066.385" fill="#D9B8FF" font-family="sans-serif" font-size="14" font-weight="bold" textLength="125">last_modified_at</text><text x="161" y="1066.385" fill="#D9B8FF" font-family="sans-serif" font-size="14" textLength="70">: datetime</text><text x="36" y="1092.682" fill="#D9B8FF" font-family="sans-serif" font-size="14" font-weight="bold" textLength="129">last_modified_by</text><text x="165" y="1092.682" fill="#D9B8FF" font-family="sans-serif" font-size="14" textLength="48">: string</text><text x="36" y="1118.979" fill="#D9B8FF" font-family="sans-serif" font-size="14" font-weight="bold" textLength="171">last_modified_by_type</text><text x="207" y="1118.979" fill="#D9B8FF" font-family="sans-serif" font-size="14" textLength="48">: string</text><rect width="214" height="100.383" x="38.5" y="438.76" fill="#3D176E" rx="2.5" ry="2.5" style="stroke:#000d19;stroke-width:.5"/><circle cx="59.8" cy="458.654" r="11" fill="#ADD1B2" style="stroke:#181818;stroke-width:1"/><path d="M62.769 464.295q-.578.297-1.219.438-.64.156-1.344.156-2.5 0-3.828-1.64-1.312-1.657-1.312-4.782t1.312-4.781q1.328-1.656 3.828-1.656.703 0 1.344.156.656.156 1.219.453v2.719q-.625-.579-1.219-.844-.594-.281-1.219-.281-1.344 0-2.031 1.078-.687 1.062-.687 3.156t.687 3.172q.688 1.062 2.031 1.062.625 0 1.219-.265.594-.281 1.219-.86z"/><text x="80.2" y="464.54" fill="#D9B8FF" font-family="Helvetica" font-size="17" textLength="158">microsoft_resource</text><path d="M39.5 478.549h212" style="stroke:#000d19;stroke-width:.5"/><text x="49.5" y="500.544" fill="#D9B8FF" font-family="sans-serif" font-size="14" font-weight="bold" textLength="35">etag</text><text x="84.5" y="500.544" fill="#D9B8FF" font-family="sans-serif" font-size="14" textLength="48">: string</text><text x="49.5" y="526.841" fill="#D9B8FF" font-family="sans-serif" font-size="14" font-weight="bold" textLength="144">provisioning_state</text><text x="193.5" y="526.841" fill="#D9B8FF" font-family="sans-serif" font-size="14" textLength="48">: string</text><rect width="227" height="310.758" x="32" y="7" fill="#3D176E" rx="2.5" ry="2.5" style="stroke:#000d19;stroke-width:.5"/><circle cx="100.75" cy="26.895" r="11" fill="#ADD1B2" style="stroke:#181818;stroke-width:1"/><path d="M103.719 32.535q-.578.297-1.219.438-.64.156-1.344.156-2.5 0-3.828-1.64-1.312-1.657-1.312-4.782t1.312-4.781q1.328-1.656 3.828-1.656.703 0 1.344.156.656.156 1.219.453v2.719q-.625-.578-1.219-.844-.594-.281-1.219-.281-1.344 0-2.031 1.078-.687 1.062-.687 3.156t.687 3.172q.688 1.062 2.031 1.062.625 0 1.219-.265.594-.281 1.219-.86z"/><text x="126.25" y="32.78" fill="#D9B8FF" font-family="Helvetica" font-size="17" textLength="71">resource</text><path d="M33 46.789h225" style="stroke:#000d19;stroke-width:.5"/><text x="43" y="68.784" fill="#D9B8FF" font-family="sans-serif" font-size="14" font-weight="bold" textLength="29">age</text><text x="72" y="68.784" fill="#D9B8FF" font-family="sans-serif" font-size="14" textLength="66">: duration</text><text x="43" y="95.081" fill="#D9B8FF" font-family="sans-serif" font-size="14" font-weight="bold" textLength="43">atime</text><text x="86" y="95.081" fill="#D9B8FF" font-family="sans-serif" font-size="14" textLength="70">: datetime</text><text x="43" y="121.378" fill="#D9B8FF" font-family="sans-serif" font-size="14" font-weight="bold" textLength="43">ctime</text><text x="86" y="121.378" fill="#D9B8FF" font-family="sans-serif" font-size="14" textLength="70">: datetime</text><text x="43" y="147.675" fill="#D9B8FF" font-family="sans-serif" font-size="14" font-weight="bold" textLength="14">id</text><text x="57" y="147.675" fill="#D9B8FF" font-family="sans-serif" font-size="14" textLength="48">: string</text><text x="43" y="173.972" fill="#D9B8FF" font-family="sans-serif" font-size="14" font-weight="bold" textLength="33">kind</text><text x="76" y="173.972" fill="#D9B8FF" font-family="sans-serif" font-size="14" textLength="48">: string</text><text x="43" y="200.269" fill="#D9B8FF" font-family="sans-serif" font-size="14" font-weight="bold" textLength="90">last_access</text><text x="133" y="200.269" fill="#D9B8FF" font-family="sans-serif" font-size="14" textLength="66">: duration</text><text x="43" y="226.565" fill="#D9B8FF" font-family="sans-serif" font-size="14" font-weight="bold" textLength="90">last_update</text><text x="133" y="226.565" fill="#D9B8FF" font-family="sans-serif" font-size="14" textLength="66">: duration</text><text x="43" y="252.862" fill="#D9B8FF" font-family="sans-serif" font-size="14" font-weight="bold" textLength="48">mtime</text><text x="91" y="252.862" fill="#D9B8FF" font-family="sans-serif" font-size="14" textLength="70">: datetime</text><text x="43" y="279.159" fill="#D9B8FF" font-family="sans-serif" font-size="14" font-weight="bold" textLength="43">name</text><text x="86" y="279.159" fill="#D9B8FF" font-family="sans-serif" font-size="14" textLength="48">: string</text><text x="43" y="305.456" fill="#D9B8FF" font-family="sans-serif" font-size="14" font-weight="bold" textLength="34">tags</text><text x="77" y="305.456" fill="#D9B8FF" font-family="sans-serif" font-size="14" textLength="171">: dictionary[string, string]</text><path fill="none" d="M145.5 866.2v53.07" style="stroke:#ffaf37;stroke-width:2"/><path fill="#FFAF37" d="m145.5 925.27 4-9-4 4-4-4z" style="stroke:#ffaf37;stroke-width:2"/><path fill="none" d="M145.5 557.52v102.23m0-120.23-6 18h12zm0-203.46v102.36m0-120.36-6 18h12z" style="stroke:#ffaf37;stroke-width:2"/></svg>
